svg/work-doodle-alise.svg

<svg width="303" height="400" viewBox="0 0 303 400" fill="none" xmlns="http://www.w3.org/2000/svg">
<path d="M121 97C123.295 97.8607 122.935 98.7177 124.5 99.5" stroke="#15CE79" stroke-width="3" stroke-linecap="round"/>
<path d="M210.5 137C209.28 143.097 209.51 149.199 208.25 155.222C206.735 162.458 201.636 169.192 198.278 175.722C192.944 186.092 186.026 195.617 179.25 205C177.469 207.465 172.765 209.381 169.778 209.889C165.614 210.596 162.357 209.055 159.111 206.5C149.292 198.77 141.485 189.141 134 179.25C129.53 173.344 122.339 166.84 115.472 163.75C110.508 161.516 104.932 158.82 99.611 157.611C94.9708 156.556 90.3034 155.901 85.7498 154.5C78.6521 152.316 78.9998 139.621 78.9998 134.111C78.9998 127.357 80.0513 120.727 80.4998 114C80.904 107.938 80.9064 101.961 80.9998 95.8886C81.0763 90.9201 82.8848 85.9198 83.4998 80.9997C83.8654 78.0754 85.2029 75.7174 86.2221 72.9997C87.2895 70.1532 87.9554 67.4107 89.8054 64.9441C93.3089 60.2727 96.7805 55.5226 101.5 51.9997C107.401 47.5943 114.34 45.3192 121.111 42.6108C126.517 40.4483 133.527 41.4997 139.25 41.4997C146.091 41.4997 153.607 40.8213 160.25 42.7497C165.557 44.2904 171.23 44.4862 176.611 45.9997C182 47.5153 187.543 48.9039 192.528 51.5275C199.593 55.2461 207.989 61.252 209.889 69.6108C210.638 72.9071 212.127 75.9443 212.75 79.3052C213.414 82.8899 213 86.8336 213 90.4719C213 93.4812 213 96.4904 213 99.4997" stroke="#15CE79" stroke-width="3" stroke-linecap="round"/>
<path d="M210.5 137C206.474 141.026 202.836 143.582 197.5 145.611C194.293 146.83 190.939 148.481 188 150.278C183.847 152.815 178.095 154.087 173.222 152.722C165.353 150.519 157.486 145.778 150.611 141.389C148.818 140.245 147.622 138.347 145.972 137.028C144.238 135.641 141.939 134.647 140.028 133.5C137.034 131.704 134.363 129.436 131.389 127.611C125.746 124.149 121.239 119.674 116.25 115.472C112.677 112.464 109.258 107.887 108.25 103.25C106.818 96.6637 110.37 92.6304 116.444 91.25C120.01 90.4397 124.248 90.9191 127.889 91C129.861 91.0439 131.55 92.133 133.472 92.4723C135.905 92.9017 138.398 92.7963 140.805 93.2778C143.361 93.789 145.879 94.4631 148.5 94.5C150.481 94.5279 152.525 94.3235 154.472 94.7778C159.31 95.9068 163.828 96.904 168.778 97.6111C173.09 98.2272 177.32 99.1687 181.722 99.4723C185.66 99.7439 189.559 100.926 193.5 101C198.412 101.093 203.336 101 208.25 101C210.287 101 215.464 98.6327 216.722 100.25C218.62 102.691 217.5 108.439 217.5 111.389C217.5 115.759 217.5 120.13 217.5 124.5C217.5 127.463 217.801 131.332 216.389 134C215.849 135.019 214.006 136.247 213 136.75C210.547 137.976 208.809 140.114 206.5 141.5" stroke="#15CE79" stroke-width="3" stroke-linecap="round"/>
<path d="M170 89.5003C170 82.3349 169.953 75.2249 170.5 68.1114C170.631 66.4115 180.501 69.5006 182 70.5003" stroke="#15CE79" stroke-width="3" stroke-linecap="round"/>
<path d="M171 76.5C174.226 77.4557 177.693 76.8387 181 77.5" stroke="#15CE79" stroke-width="3" stroke-linecap="round"/>
<path d="M187 78.9999C188.449 76.5274 189.922 74.4443 191.694 72.2777C193.143 70.5077 193 73.571 193 74.7221C193 79.7516 194 84.8622 194 89.7499C194 90.9425 194.21 91.4527 192.889 91.4999C191.428 91.5521 187.164 92.6789 188.611 92.4721C190.136 92.2542 198.007 90.0144 199 91.9999" stroke="#15CE79" stroke-width="3" stroke-linecap="round"/>
<path d="M121.5 62.5C126.906 67.8423 134.754 73.1776 137.5 80.5" stroke="#15CE79" stroke-width="3" stroke-linecap="round"/>
<path d="M204.5 81.5C206.827 79.2535 209.614 76.943 212.5 75.5" stroke="#15CE79" stroke-width="3" stroke-linecap="round"/>
</svg>

<svg xmlns="http://www.w3.org/2000/svg" width="303" height="400" fill="none"><path stroke="#15CE79" stroke-linecap="round" stroke-width="3" d="M121 97c2.295.86 1.935 1.718 3.5 2.5"/><path stroke="#15CE79" stroke-linecap="round" stroke-width="3" d="M210.5 137c-1.22 6.097-.99 12.199-2.25 18.222-1.515 7.236-6.614 13.97-9.972 20.5-5.334 10.37-12.252 19.895-19.028 29.278-1.781 2.465-6.485 4.381-9.472 4.889-4.164.707-7.421-.834-10.667-3.389-9.819-7.73-17.626-17.359-25.111-27.25-4.47-5.906-11.661-12.41-18.528-15.5-4.964-2.234-10.54-4.93-15.861-6.139-4.64-1.055-9.308-1.71-13.861-3.111-7.098-2.184-6.75-14.879-6.75-20.389 0-6.754 1.051-13.384 1.5-20.111.404-6.062.406-12.039.5-18.111.076-4.969 1.885-9.97 2.5-14.89.365-2.924 1.703-5.282 2.722-8 1.068-2.846 1.733-5.588 3.583-8.055C93.31 60.273 96.78 55.523 101.5 52c5.901-4.406 12.84-6.68 19.611-9.39 5.406-2.162 12.416-1.11 18.139-1.11 6.841 0 14.357-.679 21 1.25 5.307 1.54 10.98 1.736 16.361 3.25 5.389 1.515 10.932 2.904 15.917 5.528 7.065 3.718 15.461 9.724 17.361 18.083.749 3.296 2.238 6.333 2.861 9.694.664 3.585.25 7.529.25 11.167V99.5"/><path stroke="#15CE79" stroke-linecap="round" stroke-width="3" d="M210.5 137c-4.026 4.026-7.664 6.582-13 8.611a58.748 58.748 0 0 0-9.5 4.667c-4.153 2.537-9.905 3.809-14.778 2.444-7.869-2.203-15.736-6.944-22.611-11.333-1.793-1.144-2.989-3.042-4.639-4.361-1.734-1.387-4.033-2.381-5.944-3.528-2.994-1.796-5.665-4.064-8.639-5.889-5.643-3.462-10.15-7.937-15.139-12.139-3.573-3.008-6.992-7.585-8-12.222-1.432-6.586 2.12-10.62 8.194-12 3.566-.81 7.804-.33 11.445-.25 1.972.044 3.661 1.133 5.583 1.472 2.433.43 4.926.324 7.333.806 2.556.511 5.074 1.185 7.695 1.222 1.981.028 4.025-.177 5.972.278 4.838 1.129 9.356 2.126 14.306 2.833 4.312.616 8.542 1.558 12.944 1.861 3.938.272 7.837 1.454 11.778 1.528 4.912.093 9.836 0 14.75 0 2.037 0 7.214-2.367 8.472-.75 1.898 2.441.778 8.189.778 11.139V124.5c0 2.963.301 6.832-1.111 9.5-.54 1.019-2.383 2.247-3.389 2.75-2.453 1.226-4.191 3.364-6.5 4.75m-36.5-52c0-7.165-.047-14.275.5-21.389.131-1.7 10.001 1.39 11.5 2.39"/><path stroke="#15CE79" stroke-linecap="round" stroke-width="3" d="M171 76.5c3.226.956 6.693.339 10 1m6 1.5a51.01 51.01 0 0 1 4.694-6.722c1.449-1.77 1.306 1.293 1.306 2.444 0 5.03 1 10.14 1 15.028 0 1.192.21 1.703-1.111 1.75-1.461.052-5.725 1.179-4.278.972 1.525-.218 9.396-2.458 10.389-.472m-77.5-29.5c5.406 5.342 13.254 10.678 16 18m67 1c2.327-2.246 5.114-4.557 8-6"/></svg>
